svgs/sharp-regular/cup-straw-swoosh.svg

<svg xmlns="http://www.w3.org/2000/svg" viewBox="0 0 384 512"><!--! Font Awesome Pro 6.6.0 by @fontawesome - https://fontawesome.com License - https://fontawesome.com/license (Commercial License) Copyright 2024 Fonticons, Inc. --><path d="M224 0l56 0 24 0 0 48-24 0-37 0-18.8 80 79.6 0 48.2 0 8 0 24 0 0 48-24 0-12 0-48.2 0-86.9 0-49.3 0-79.4 0L36 176l-12 0L0 176l0-48 24 0 8 0 48.2 0 94.7 0L200.6 18.5 205 0l19 0zM64 512L38.7 208l48.2 0L99.7 362.4c15.7-3.1 27.5-7.3 36.9-11.9c19.3-9.5 30.1-22 42.8-37.6l1.9-2.3c12.3-15.2 27.4-33.8 53.1-47.7c16-8.6 35.4-15.1 59.8-18.9l3-36 48.2 0L320 512 64 512zM290 293.5c-14.1 3.1-24.6 7.1-32.9 11.6c-17.2 9.3-26.9 21.2-39.9 37.2l-.7 .8c-13.3 16.4-29.5 35.9-58.7 50.4c-14.9 7.4-32.6 13.1-54.2 17l4.5 53.5 167.7 0L290 293.5z"/></svg>

<svg xmlns="http://www.w3.org/2000/svg" viewBox="0 0 384 512"><!--! Font Awesome Pro 6.4.0 by @fontawesome - https://fontawesome.com License - https://fontawesome.com/license (Commercial License) Copyright 2023 Fonticons, Inc. --><path d="M224 0h56 24V48H280 243l-18.8 80h79.6H352h8 24v48H360 348 299.8 212.9 163.6 84.2 36 24 0V128H24h8H80.2h94.7L200.6 18.5 205 0h19zM64 512L38.7 208H86.8L99.7 362.4c15.7-3.1 27.5-7.3 36.9-11.9c19.3-9.5 30.1-22 42.8-37.6l1.9-2.3c12.3-15.2 27.4-33.8 53.1-47.7c16-8.6 35.4-15.1 59.8-18.9l3-36h48.2L320 512H64zM290 293.5c-14.1 3.1-24.6 7.1-32.9 11.6c-17.2 9.3-26.9 21.2-39.9 37.2l-.7 .8c-13.3 16.4-29.5 35.9-58.7 50.4c-14.9 7.4-32.6 13.1-54.2 17l4.5 53.5H275.8L290 293.5z"/></svg>
